icons/liver_fill.svg

<svg width="48" height="48" viewBox="0 0 48 48" fill="none" xmlns="http://www.w3.org/2000/svg">
<path fill-rule="evenodd" clip-rule="evenodd" d="M23.2157 10.0607C22.5621 11.0012 22.112 11.962 21.8034 12.8418C21.446 13.8608 21.2754 14.777 21.1939 15.4417C21.153 15.7748 21.1342 16.047 21.1257 16.2402C21.1214 16.3368 21.1197 16.4139 21.1192 16.4692C21.1189 16.4969 21.1189 16.5191 21.1189 16.5356L21.1191 16.556L21.1192 16.563L21.1193 16.5656L21.1193 16.5667C21.1193 16.5667 21.1193 16.5677 22.1191 16.5479C23.1189 16.528 23.1189 16.5288 23.1189 16.5288L23.1189 16.5255L23.1189 16.5227L23.1191 16.4903C23.1194 16.4562 23.1205 16.4015 23.1238 16.3282C23.1302 16.1815 23.1451 15.9615 23.179 15.6853C23.247 15.1312 23.3904 14.3599 23.6907 13.5039C24.0603 12.4502 24.6632 11.2773 25.6539 10.2157C27.9787 10.4791 28.8525 11.0046 29.5758 11.4395C30.2149 11.8238 30.7364 12.1374 32.0374 12.1374C33.3805 12.1374 35.2609 11.7362 37.1413 11.335C39.9619 10.7332 42.7825 10.1315 43.7898 10.8837C45.4687 12.1374 40.432 21.3314 35.3952 21.3314C32.8027 21.3314 31.2481 23.1899 29.7392 24.9937C28.3166 26.6944 26.9347 28.3464 24.762 28.3464C22.6699 28.3464 21.311 29.0047 20 29.7061V23.0479C20 22.6526 20.195 22.2841 20.5335 21.9879C20.8909 21.6752 21.2902 21.5479 21.5 21.5479V19.5479C20.7098 19.5479 19.8591 19.9205 19.2165 20.4828C18.5727 21.0461 18.0298 21.8962 18.0012 22.9597H12.9072C10.5179 22.9597 7.65082 24.0112 10.5179 26.1135C12.5977 27.6385 16.186 26.4249 18 25.6433V30.707C17.0781 31.0885 16.0352 31.3613 14.6885 31.3613C12.8526 31.3613 12.2458 32.8297 11.6009 34.3903C10.8697 36.1599 10.0895 38.0479 7.41312 38.0479C2.37634 38.0479 3.61914 22.5479 6.61916 16.5479C9.61919 10.5479 13.7245 10.0479 22.1192 10.0479C22.5059 10.0479 22.8709 10.0523 23.2157 10.0607Z" fill="black"/>
<path fill-rule="evenodd" clip-rule="evenodd" d="M18 40.0479V30.707L20 29.7061V40.0479H18Z" fill="black"/>
</svg>

<svg
  xmlns="http://www.w3.org/2000/svg"
  width="24"
  height="24"
  viewBox="0 0 24 24"
  fill="none"
  stroke="currentColor"
  stroke-width="2"
  stroke-linecap="round"
  stroke-linejoin="round"
>
  <path
    fill-rule="evenodd"
    d="M23.216 10.06a11.6 11.6 0 0 0-1.413 2.782 12.5 12.5 0 0 0-.61 2.6 10 10 0 0 0-.074 1.027v.097s0 .002 1-.018l1-.02v-.038q0-.051.005-.162c.006-.146.021-.367.055-.643.068-.554.211-1.325.512-2.181a9.3 9.3 0 0 1 1.963-3.288c2.325.263 3.198.789 3.922 1.224.639.384 1.16.697 2.461.697 1.343 0 3.224-.4 5.104-.802 2.82-.602 5.642-1.203 6.649-.451 1.679 1.253-3.358 10.447-8.395 10.447-2.592 0-4.147 1.859-5.656 3.663-1.422 1.7-2.804 3.352-4.977 3.352-2.092 0-3.451.659-4.762 1.36v-6.658c0-.395.195-.764.534-1.06.357-.313.756-.44.966-.44v-2c-.79 0-1.64.373-2.283.935-.644.563-1.187 1.413-1.216 2.477h-5.094c-2.39 0-5.256 1.051-2.39 3.153 2.08 1.526 5.669.312 7.483-.47v5.064a8.4 8.4 0 0 1-3.312.654c-1.835 0-2.442 1.469-3.087 3.03-.731 1.769-1.512 3.657-4.188 3.657-5.037 0-3.794-15.5-.794-21.5s7.106-6.5 15.5-6.5q.58 0 1.097.013"
    clip-rule="evenodd"
  />
  <path
    fill-rule="evenodd"
    d="M18 40.048v-9.341l2-1v10.34z"
    clip-rule="evenodd"
  />
</svg>
